images/SVG/figma.svg

<svg width="21" height="30" viewBox="0 0 21 30" fill="none" xmlns="http://www.w3.org/2000/svg">
<g clip-path="url(#clip0_530_6)">
<path d="M5.75006 0.119998C2.45006 -0.0300024 -0.179939 3.27 0.460061 6.44C1.29006 10.6 5.86006 10.94 9.32006 11.05C11.5001 11.12 13.7201 11.03 15.8801 10.69C17.4401 10.44 18.8801 9.8 19.5801 8.31C20.8401 5.61 19.5501 2.29 16.9701 0.949998C15.2401 0.0599976 13.3401 -0.0100024 11.4501 0.00999756C9.56006 0.0299976 7.64006 -0.0800024 5.76006 0.119998C4.97006 0.209998 4.96006 1.46 5.76006 1.37C6.95006 1.24 8.17006 1.27 9.36006 1.27C10.7801 1.27 12.2301 1.16 13.6501 1.3C16.3101 1.55 18.7401 3.08 18.8001 5.97C18.8201 7.14 18.4401 8.36 17.3601 8.95C15.9601 9.71 14.0501 9.68 12.5101 9.76C10.7301 9.85 8.93006 9.82 7.16006 9.67C5.62006 9.53 3.86006 9.33 2.72006 8.16C0.290061 5.66 2.27006 1.21 5.75006 1.37C6.55006 1.41 6.55006 0.159998 5.75006 0.119998Z" fill="#312F2F"/>
<path d="M6.98011 9.66C4.48011 9.38 1.62011 9.91 0.510111 12.45C0.120111 13.31 -0.039889 14.28 0.000110957 15.22C0.080111 17.01 1.39011 18.4 2.99011 19.01C5.18011 19.84 7.58011 19.48 9.87011 19.57C10.2001 19.58 10.5001 19.27 10.4901 18.95C10.4201 16.29 10.3301 13.62 10.2601 10.96C10.2401 10.16 8.99011 10.15 9.01011 10.96C9.08011 13.62 9.17011 16.29 9.24011 18.95L9.86011 18.33C8.08011 18.26 6.24011 18.5 4.48011 18.14C3.03011 17.85 1.45011 17.04 1.25011 15.39C1.07011 13.93 1.61011 12.25 2.95011 11.45C4.14011 10.74 5.63011 10.76 6.96011 10.9C7.30011 10.94 7.58011 10.59 7.58011 10.28C7.58011 9.91 7.29011 9.69 6.96011 9.66H6.98011Z" fill="#312F2F"/>
<path d="M6.25019 18.32C4.24019 18.12 2.33019 19.27 1.16019 20.84C-0.0098139 22.41 -0.299814 24.48 0.570186 26.31C1.37019 27.97 3.05019 29.22 4.91019 29.29C6.77019 29.36 8.78019 28.3 9.81019 26.7C10.4602 25.69 10.5802 24.48 10.6202 23.3C10.6602 21.82 10.5102 20.33 10.4902 18.85C10.4802 18.05 9.23019 18.04 9.24019 18.85C9.25019 19.94 9.34019 21.03 9.37019 22.12C9.40019 23.11 9.42019 24.17 9.16019 25.14C8.76019 26.62 7.33019 27.64 5.88019 27.96C4.43019 28.28 2.92019 27.62 2.05019 26.38C1.13019 25.06 1.05019 23.46 1.85019 22.07C2.74019 20.53 4.44019 19.41 6.25019 19.58C7.05019 19.66 7.04019 18.41 6.25019 18.33V18.32Z" fill="#312F2F"/>
<path d="M13.35 9.82997C11.2 10.45 9.48001 12.32 9.27001 14.58C9.08001 16.69 10.39 18.84 12.24 19.81C14.26 20.86 16.63 20.36 18.2 18.77C19.77 17.18 20.27 14.8 19.27 12.74C18.21 10.58 15.72 9.19997 13.34 9.82997C12.56 10.04 12.89 11.24 13.67 11.04C15.29 10.61 16.97 11.46 17.87 12.82C18.82 14.26 18.77 16.03 17.73 17.41C16.69 18.79 14.94 19.51 13.29 18.92C11.82 18.39 10.66 16.9 10.51 15.34C10.32 13.35 11.82 11.57 13.67 11.04C14.44 10.82 14.11 9.60997 13.34 9.82997H13.35Z" fill="#312F2F"/>
</g>
<defs>
<clipPath id="clip0_530_6">
<rect width="20.07" height="29.29" fill="white"/>
</clipPath>
</defs>
</svg>

<?xml version="1.0" encoding="UTF-8"?>
<svg id="Layer_2" data-name="Layer 2" xmlns="http://www.w3.org/2000/svg" viewBox="0 0 20.07 29.29">
  <defs>
    <style>
      .cls-1 {
        fill: #312f2f;
      }
    </style>
  </defs>
  <g id="Figma">
    <g>
      <path class="cls-1" d="M5.75.12C2.45-.03-.18,3.27.46,6.44c.83,4.16,5.4,4.5,8.86,4.61,2.18.07,4.4-.02,6.56-.36,1.56-.25,3-.89,3.7-2.38,1.26-2.7-.03-6.02-2.61-7.36C15.24.06,13.34-.01,11.45.01s-3.81-.09-5.69.11c-.79.09-.8,1.34,0,1.25,1.19-.13,2.41-.1,3.6-.1,1.42,0,2.87-.11,4.29.03,2.66.25,5.09,1.78,5.15,4.67.02,1.17-.36,2.39-1.44,2.98-1.4.76-3.31.73-4.85.81-1.78.09-3.58.06-5.35-.09-1.54-.14-3.3-.34-4.44-1.51C.29,5.66,2.27,1.21,5.75,1.37c.8.04.8-1.21,0-1.25h0Z"/>
      <path class="cls-1" d="M6.98,9.66c-2.5-.28-5.36.25-6.47,2.79C.12,13.31-.04,14.28,0,15.22c.08,1.79,1.39,3.18,2.99,3.79,2.19.83,4.59.47,6.88.56.33.01.63-.3.62-.62-.07-2.66-.16-5.33-.23-7.99-.02-.8-1.27-.81-1.25,0,.07,2.66.16,5.33.23,7.99l.62-.62c-1.78-.07-3.62.17-5.38-.19-1.45-.29-3.03-1.1-3.23-2.75-.18-1.46.36-3.14,1.7-3.94,1.19-.71,2.68-.69,4.01-.55.34.04.62-.31.62-.62,0-.37-.29-.59-.62-.62h0Z"/>
      <path class="cls-1" d="M6.25,18.32c-2.01-.2-3.92.95-5.09,2.52s-1.46,3.64-.59,5.47c.8,1.66,2.48,2.91,4.34,2.98s3.87-.99,4.9-2.59c.65-1.01.77-2.22.81-3.4.04-1.48-.11-2.97-.13-4.45-.01-.8-1.26-.81-1.25,0,.01,1.09.1,2.18.13,3.27.03.99.05,2.05-.21,3.02-.4,1.48-1.83,2.5-3.28,2.82s-2.96-.34-3.83-1.58c-.92-1.32-1-2.92-.2-4.31.89-1.54,2.59-2.66,4.4-2.49.8.08.79-1.17,0-1.25h0Z"/>
      <path class="cls-1" d="M13.35,9.83c-2.15.62-3.87,2.49-4.08,4.75-.19,2.11,1.12,4.26,2.97,5.23,2.02,1.05,4.39.55,5.96-1.04s2.07-3.97,1.07-6.03c-1.06-2.16-3.55-3.54-5.93-2.91-.78.21-.45,1.41.33,1.21,1.62-.43,3.3.42,4.2,1.78.95,1.44.9,3.21-.14,4.59s-2.79,2.1-4.44,1.51c-1.47-.53-2.63-2.02-2.78-3.58-.19-1.99,1.31-3.77,3.16-4.3.77-.22.44-1.43-.33-1.21h0Z"/>
    </g>
  </g>
</svg>
